X:2887
T:J'ai dix sous dans ma poche - Rond de Muzillac
O:england
C:La Godinette
M:4/4
L:1/8
K:C
E|AAAA G2A2|B2Bc B3E|AAAA G2A2|B2Bc B3:|\
|:A|d2c2 B3A|d2c2B4|E2AB c3c|d2c2 B2AB|c2B2A3:|


